seeds/icons/tv.svg

<?xml version="1.0" encoding="utf-8"?>
<!-- Uploaded to: SVG Repo, www.svgrepo.com, Generator: SVG Repo Mixer Tools -->
<svg fill="#000000" width="1.5rem" height="1.5rem" viewBox="0 0 32 32" version="1.1" xmlns="http://www.w3.org/2000/svg">
<title>tv</title>
<path d="M26 26.75h-20c-0.69 0-1.25 0.56-1.25 1.25s0.56 1.25 1.25 1.25v0h20c0.69 0 1.25-0.56 1.25-1.25s-0.56-1.25-1.25-1.25v0zM28 2.75h-24c-1.794 0.002-3.248 1.456-3.25 3.25v16c0.002 1.794 1.456 3.248 3.25 3.25h24c1.794-0.001 3.249-1.456 3.25-3.25v-16c-0.002-1.794-1.456-3.248-3.25-3.25h-0zM28.75 22c-0 0.414-0.336 0.75-0.75 0.75h-24c-0.414-0-0.75-0.336-0.75-0.75v-16c0.001-0.414 0.336-0.749 0.75-0.75h24c0.414 0 0.75 0.336 0.75 0.75v0z"></path>
</svg>

<svg xmlns="http://www.w3.org/2000/svg" width="1.5rem" height="1.5rem" viewBox="0 0 32 32"><path d="M26 26.75H6a1.25 1.25 0 0 0 0 2.5h20a1.25 1.25 0 0 0 0-2.5m2-24H4A3.254 3.254 0 0 0 .75 6v16A3.254 3.254 0 0 0 4 25.25h24A3.25 3.25 0 0 0 31.25 22V6A3.254 3.254 0 0 0 28 2.75M28.75 22a.75.75 0 0 1-.75.75H4a.75.75 0 0 1-.75-.75V6A.75.75 0 0 1 4 5.25h24a.75.75 0 0 1 .75.75z"/></svg>
